public/img/icons/prize3.svg

<svg width="54" height="24" viewBox="0 0 54 24" fill="none" xmlns="http://www.w3.org/2000/svg">
<path d="M5.85576 13.864H0.159763L0.159668 9.12795H5.85567L5.85555 3.33595H10.7836L10.7837 9.12795H16.4797L16.4798 13.864H10.7838L10.7839 19.656H5.85588L5.85576 13.864Z" fill="url(#paint0_linear_683_10370)"/>
<path d="M18.8824 18.28H23.8424L23.8421 6.40795L18.8822 9.92795L18.8821 4.16795L23.874 0.615952L29.602 0.615952L29.6024 18.28H33.6024L33.6024 23.016H18.8824L18.8824 18.28Z" fill="url(#paint1_linear_683_10370)"/>
<path d="M44.4712 23.432C43.2125 23.432 42.0392 23.2293 40.9512 22.824C39.8632 22.3973 38.9138 21.7253 38.1032 20.808C37.2925 19.8906 36.6524 18.696 36.1831 17.224C35.7351 15.7306 35.511 13.928 35.511 11.816L35.511 11.176C35.5109 9.21329 35.7349 7.53862 36.1829 6.15195C36.6522 4.76529 37.2921 3.63462 38.1028 2.75995C38.9134 1.86395 39.8628 1.21329 40.9508 0.807953C42.0387 0.402618 43.2121 0.199951 44.4707 0.199951C45.7294 0.199951 46.9027 0.402618 47.9908 0.807953C49.0788 1.21329 50.0281 1.86395 50.8388 2.75995C51.6495 3.63462 52.2788 4.76529 52.7269 6.15195C53.1962 7.53862 53.4309 9.21329 53.431 11.176L53.431 11.816C53.431 13.928 53.1964 15.7306 52.7271 17.224C52.2791 18.696 51.6498 19.8906 50.8392 20.808C50.0285 21.7253 49.0792 22.3973 47.9912 22.824C46.9032 23.2293 45.7299 23.432 44.4712 23.432ZM44.4711 18.696C44.8978 18.696 45.3031 18.5893 45.6871 18.376C46.0924 18.1626 46.4338 17.8 46.7111 17.288C47.0097 16.7546 47.2444 16.0506 47.415 15.176C47.5857 14.28 47.671 13.16 47.671 11.816L47.671 11.176C47.6709 10.0026 47.5856 9.02129 47.4149 8.23195C47.2442 7.42129 47.0095 6.77062 46.7109 6.27995C46.4335 5.78929 46.0922 5.44795 45.6868 5.25595C45.3028 5.04262 44.8975 4.93595 44.4708 4.93595C44.0442 4.93595 43.6282 5.04262 43.2228 5.25595C42.8388 5.44795 42.4975 5.78929 42.1989 6.27995C41.9215 6.77062 41.6976 7.42129 41.5269 8.23195C41.3563 9.02129 41.2709 10.0026 41.271 11.176L41.271 11.816C41.271 13.16 41.3564 14.28 41.527 15.176C41.6977 16.0506 41.9217 16.7546 42.1991 17.288C42.4978 17.8 42.8391 18.1626 43.2231 18.376C43.6284 18.5893 44.0444 18.696 44.4711 18.696Z" fill="url(#paint2_linear_683_10370)"/>
<defs>
<linearGradient id="paint0_linear_683_10370" x1="1.96216" y1="25.559" x2="38.4437" y2="-33.346" gradientUnits="userSpaceOnUse">
<stop offset="0.0989583" stop-color="#FFC62F"/>
<stop offset="0.3424" stop-color="#FFEAA5"/>
<stop offset="0.482125" stop-color="#EBD084"/>
<stop offset="1" stop-color="#A37207"/>
</linearGradient>
<linearGradient id="paint1_linear_683_10370" x1="1.96216" y1="25.559" x2="38.4437" y2="-33.346" gradientUnits="userSpaceOnUse">
<stop offset="0.0989583" stop-color="#FFC62F"/>
<stop offset="0.3424" stop-color="#FFEAA5"/>
<stop offset="0.482125" stop-color="#EBD084"/>
<stop offset="1" stop-color="#A37207"/>
</linearGradient>
<linearGradient id="paint2_linear_683_10370" x1="1.96216" y1="25.559" x2="38.4437" y2="-33.346" gradientUnits="userSpaceOnUse">
<stop offset="0.0989583" stop-color="#FFC62F"/>
<stop offset="0.3424" stop-color="#FFEAA5"/>
<stop offset="0.482125" stop-color="#EBD084"/>
<stop offset="1" stop-color="#A37207"/>
</linearGradient>
</defs>
</svg>

<svg width="54" height="24" fill="none" xmlns="http://www.w3.org/2000/svg"><path d="M5.856 13.864H.16V9.128h5.696V3.336h4.928v5.792h5.696v4.736h-5.696v5.792H5.856v-5.792Z" fill="url(#a)"/><path d="M18.882 18.28h4.96V6.408l-4.96 3.52v-5.76L23.874.616h5.728V18.28h4v4.736h-14.72V18.28Z" fill="url(#b)"/><path d="M44.471 23.432c-1.258 0-2.432-.203-3.52-.608a7.342 7.342 0 0 1-2.848-2.016c-.81-.917-1.45-2.112-1.92-3.584-.448-1.493-.672-3.296-.672-5.408v-.64c0-1.963.224-3.637.672-5.024.47-1.387 1.11-2.517 1.92-3.392A7.181 7.181 0 0 1 40.95.808C42.039.403 43.212.2 44.47.2c1.258 0 2.432.203 3.52.608a7.182 7.182 0 0 1 2.848 1.952c.81.875 1.44 2.005 1.888 3.392.47 1.387.704 3.061.704 5.024v.64c0 2.112-.235 3.915-.704 5.408-.448 1.472-1.077 2.667-1.888 3.584a7.343 7.343 0 0 1-2.848 2.016c-1.088.405-2.261.608-3.52.608Zm0-4.736c.427 0 .832-.107 1.216-.32.405-.213.747-.576 1.024-1.088.299-.533.533-1.237.704-2.112.17-.896.256-2.016.256-3.36v-.64c0-1.173-.085-2.155-.256-2.944-.17-.81-.405-1.461-.704-1.952-.277-.49-.619-.832-1.024-1.024a2.467 2.467 0 0 0-1.216-.32 2.65 2.65 0 0 0-1.248.32c-.384.192-.725.533-1.024 1.024-.277.49-.501 1.141-.672 1.952-.17.79-.256 1.77-.256 2.944v.64c0 1.344.085 2.464.256 3.36.17.875.395 1.579.672 2.112.299.512.64.875 1.024 1.088.405.213.821.32 1.248.32Z" fill="url(#c)"/><defs><linearGradient id="a" x1="1.962" y1="25.559" x2="38.444" y2="-33.346" gradientUnits="userSpaceOnUse"><stop offset=".099" stop-color="#FFC62F"/><stop offset=".342" stop-color="#FFEAA5"/><stop offset=".482" stop-color="#EBD084"/><stop offset="1" stop-color="#A37207"/></linearGradient><linearGradient id="b" x1="1.962" y1="25.559" x2="38.444" y2="-33.346" gradientUnits="userSpaceOnUse"><stop offset=".099" stop-color="#FFC62F"/><stop offset=".342" stop-color="#FFEAA5"/><stop offset=".482" stop-color="#EBD084"/><stop offset="1" stop-color="#A37207"/></linearGradient><linearGradient id="c" x1="1.962" y1="25.559" x2="38.444" y2="-33.346" gradientUnits="userSpaceOnUse"><stop offset=".099" stop-color="#FFC62F"/><stop offset=".342" stop-color="#FFEAA5"/><stop offset=".482" stop-color="#EBD084"/><stop offset="1" stop-color="#A37207"/></linearGradient></defs></svg>
